packages/core/src/svgs/tokens/mono/ZZ.svg

<svg width="24" height="24" viewBox="0 0 24 24" fill="none" xmlns="http://www.w3.org/2000/svg">
<path d="M7.87851 2.11087C7.71813 2.02157 7.53379 1.98479 7.35142 2.00573C7.16905 2.02665 6.99783 2.10423 6.86185 2.22754L5.78961 3.19422C5.3174 3.622 5.40072 4.41643 5.9674 4.71644L14.623 9.38313L8.56741 13.8276C8.14519 14.1276 8.19519 14.7832 8.65629 15.0165L18.6452 20.0665L17.2563 21.0721L5.3285 14.3776L10.9563 10.3776C11.3619 10.0886 11.3452 9.4664 10.9174 9.20535L7.46184 7.08312L6.95074 7.84979L10.1564 9.8164L4.51183 13.8331C4.10073 14.1276 4.13405 14.7665 4.57294 15.0165L16.823 21.8887C17.1231 22.0554 17.4897 22.0331 17.7675 21.8331L19.1619 20.822C19.2892 20.7271 19.3906 20.6016 19.4565 20.4572C19.5227 20.3128 19.551 20.154 19.5395 19.9956C19.5278 19.8372 19.4765 19.6844 19.39 19.5511C19.3037 19.4177 19.1851 19.3084 19.0452 19.2331L9.38964 14.3554L15.4453 9.92205C15.8563 9.62196 15.8119 8.97756 15.3675 8.73868L6.38407 3.88866L7.45073 2.92199L18.6786 9.14424L12.5952 13.5942C12.1896 13.8943 12.2285 14.5331 12.6674 14.7776L18.1952 17.8443L18.6786 16.9943L13.4119 14.1331L19.4953 9.68314C19.9008 9.38313 19.8619 8.74424 19.423 8.49979L7.87851 2.11087ZM6.47851 7.55534L6.98963 6.79423L5.9674 6.16644L5.50628 6.96089L6.47851 7.5609V7.55534Z" fill="white"/>
</svg>

<svg xmlns="http://www.w3.org/2000/svg" width="24" height="24" fill="none" viewBox="0 0 24 24">
    <path fill="#fff" d="M7.879 2.11a.88.88 0 0 0-1.017.118l-1.072.966c-.473.428-.39 1.222.177 1.522l8.656 4.667-6.056 4.445a.7.7 0 0 0 .09 1.189l9.988 5.05-1.389 1.005L5.33 14.378l5.627-4a.706.706 0 0 0-.039-1.173L7.462 7.083l-.511.767 3.205 1.966-5.644 4.017a.71.71 0 0 0 .06 1.184l12.251 6.872c.3.166.667.144.944-.056l1.395-1.011a.944.944 0 0 0-.117-1.589L9.39 14.355l6.055-4.433a.707.707 0 0 0-.078-1.183l-8.983-4.85 1.067-.967 11.228 6.222-6.084 4.45a.712.712 0 0 0 .072 1.184l5.528 3.066.484-.85-5.267-2.86 6.083-4.45a.712.712 0 0 0-.072-1.184zm-1.4 5.445.51-.76-1.022-.629-.46.795.972.6z"/>
</svg>
